public/sheesh/icons25.svg

<svg fill="none" height="60" viewBox="0 0 61 60" width="61" xmlns="http://www.w3.org/2000/svg" xmlns:xlink="http://www.w3.org/1999/xlink"><linearGradient id="a"><stop offset="0" stop-color="#34c796"/><stop offset="1" stop-color="#0b7a55"/></linearGradient><linearGradient id="b" gradientUnits="userSpaceOnUse" x1="30.2998" x2="30.2998" xlink:href="#a" y1="0" y2="60"/><linearGradient id="c" gradientUnits="userSpaceOnUse" x1="30.3026" x2="30.3026" xlink:href="#a" y1="16.668" y2="43.3335"/><circle cx="30.2998" cy="30" fill="#151722" r="29" stroke="url(#b)" stroke-width="2"/><path clip-rule="evenodd" d="m37.0333 17.1072c2.8934.8533 5.3067 3.2667 6.16 6.16.6534 2.2.5867 3.72-.2266 4.76-.9467 1.2667-2.6667 1.4133-3.8667 1.4133h-3.8267c-2.9333 0-4.4266-1.6666-4.4266-4.9466v-3.32c0-1.2134.1466-2.92 1.4133-3.8667 1.0533-.7867 2.5733-.84 4.7733-.2zm1.1064 14.0797c.52 0 1.0266.2266 1.3733.6266.3467.3867.5067.9067.44 1.4267-.4 3.1333-2.12 6.0133-4.7067 7.8933-1.9866 1.4534-4.32 2.2-6.7333 2.2-.7333 0-1.4667-.0666-2.2-.2133-4.6-.8667-8.2667-4.5333-9.1333-9.12-.6-3.1733.0933-6.3467 1.9866-8.9467 1.88-2.5866 4.76-4.3066 7.8934-4.7066.5066-.0667 1.04.0933 1.4266.44.4.3466.6267.8533.6267 1.3733v4.7733c0 2.3467 1.9067 4.2534 4.2533 4.2534z" fill="url(#c)" fill-rule="evenodd"/></svg>

<svg width="61" height="60" viewBox="0 0 61 60" fill="none" xmlns="http://www.w3.org/2000/svg">
<circle cx="30.2998" cy="30" r="29" fill="#151722" stroke="url(#paint0_linear_415_2224)" stroke-width="2"/>
<path fill-rule="evenodd" clip-rule="evenodd" d="M37.0333 17.1072C39.9267 17.9605 42.34 20.3739 43.1933 23.2672C43.8467 25.4672 43.78 26.9872 42.9667 28.0272C42.02 29.2939 40.3 29.4405 39.1 29.4405H35.2733C32.34 29.4405 30.8467 27.7739 30.8467 24.4939V21.1739C30.8467 19.9605 30.9933 18.2539 32.26 17.3072C33.3133 16.5205 34.8333 16.4672 37.0333 17.1072ZM38.1397 31.1869C38.6597 31.1869 39.1663 31.4135 39.513 31.8135C39.8597 32.2002 40.0197 32.7202 39.953 33.2402C39.553 36.3735 37.833 39.2535 35.2463 41.1335C33.2597 42.5869 30.9263 43.3335 28.513 43.3335C27.7797 43.3335 27.0463 43.2669 26.313 43.1202C21.713 42.2535 18.0463 38.5869 17.1797 34.0002C16.5797 30.8269 17.273 27.6535 19.1663 25.0535C21.0463 22.4669 23.9263 20.7469 27.0597 20.3469C27.5663 20.2802 28.0997 20.4402 28.4863 20.7869C28.8863 21.1335 29.113 21.6402 29.113 22.1602V26.9335C29.113 29.2802 31.0197 31.1869 33.3663 31.1869H38.1397Z" fill="url(#paint1_linear_415_2224)"/>
<defs>
<linearGradient id="paint0_linear_415_2224" x1="30.2998" y1="0" x2="30.2998" y2="60" gradientUnits="userSpaceOnUse">
<stop stop-color="#34C796"/>
<stop offset="1" stop-color="#0B7A55"/>
</linearGradient>
<linearGradient id="paint1_linear_415_2224" x1="30.3026" y1="16.668" x2="30.3026" y2="43.3335" gradientUnits="userSpaceOnUse">
<stop stop-color="#34C796"/>
<stop offset="1" stop-color="#0B7A55"/>
</linearGradient>
</defs>
</svg>
